icons/1_Primary/Reddit.svg

<svg xmlns="http://www.w3.org/2000/svg" width="1024" height="1024" fill="none">
   <g clip-path="url(#a)">
      <path fill="#FF837D" d="M512 1024c282.77 0 512-229.23 512-512S794.77 0 512 0 0 229.23 0 512s229.23 512 512 512Z"/>
      <path fill="#fff" d="M768 516c0-30.9-25.1-56-56-56-15.1 0-28.8 6-38.9 15.7-38.3-27.6-91.1-45.5-149.8-47.5l25.5-120.1 83.4 17.7c1 21.2 18.4 38.1 39.8 38.1 22.1 0 40-17.9 40-40s-17.9-40-40-40c-15.7 0-29.2 9.1-35.7 22.3l-93.1-19.8c-2.6-.6-5.3-.1-7.5 1.4-2.2 1.4-3.8 3.7-4.3 6.3l-28.5 134c-59.6 1.7-113.2 19.5-152 47.5-10.1-9.7-23.7-15.6-38.7-15.6-30.9 0-56 25.1-56 56 0 22.8 13.6 42.3 33.1 51.1-.9 5.6-1.3 11.2-1.3 16.9 0 86.2 100.3 156.1 224.1 156.1S736 670.2 736 584c0-5.7-.5-11.3-1.3-16.8 19.6-8.7 33.3-28.3 33.3-51.2Zm-384.1 40c0-22.1 18-40 40-40 22.1 0 40 18 40 40 0 22.1-17.9 40-40 40s-40-17.9-40-40ZM607 661.8c-27.3 27.3-79.7 29.4-95 29.4-15.4 0-67.7-2.1-95-29.4-4-4-4-10.6 0-14.7 4-4 10.6-4 14.7 0 17.2 17.2 54 23.3 80.3 23.3 26.3 0 63.1-6.1 80.4-23.3 4.1-4 10.6-4 14.7 0 4 4.1 4 10.6-.1 14.7Zm-7-65.8c-22.1 0-40-18-40-40 0-22.1 18-40 40-40 22.1 0 40 18 40 40 0 22.1-18 40-40 40Z"/>
   </g>
   <defs>
      <clipPath id="a">
         <path fill="#fff" d="M0 0h1024v1024H0z"/>
      </clipPath>
   </defs>
</svg>

<svg width="1024" height="1024" viewBox="0 0 1024 1024" fill="none" xmlns="http://www.w3.org/2000/svg">
<g clip-path="url(#clip0_2_3306)">
<path d="M512 1024C794.77 1024 1024 794.77 1024 512C1024 229.23 794.77 0 512 0C229.23 0 0 229.23 0 512C0 794.77 229.23 1024 512 1024Z" fill="#FF837D"/>
<path d="M768 516C768 485.1 742.9 460 712 460C696.9 460 683.2 466 673.1 475.7C634.8 448.1 582 430.2 523.3 428.2L548.8 308.1L632.2 325.8C633.2 347 650.6 363.9 672 363.9C694.1 363.9 712 346 712 323.9C712 301.8 694.1 283.9 672 283.9C656.3 283.9 642.8 293 636.3 306.2L543.2 286.4C540.6 285.8 537.9 286.3 535.7 287.8C533.5 289.2 531.9 291.5 531.4 294.1L502.9 428.1C443.3 429.8 389.7 447.6 350.9 475.6C340.8 465.9 327.2 460 312.2 460C281.3 460 256.2 485.1 256.2 516C256.2 538.8 269.8 558.3 289.3 567.1C288.4 572.7 288 578.3 288 584C288 670.2 388.3 740.1 512.1 740.1C635.9 740.1 736 670.2 736 584C736 578.3 735.5 572.7 734.7 567.2C754.3 558.5 768 538.9 768 516ZM383.9 556C383.9 533.9 401.9 516 423.9 516C446 516 463.9 534 463.9 556C463.9 578.1 446 596 423.9 596C401.8 596 383.9 578.1 383.9 556ZM607 661.8C579.7 689.1 527.3 691.2 512 691.2C496.6 691.2 444.3 689.1 417 661.8C413 657.8 413 651.2 417 647.1C421 643.1 427.6 643.1 431.7 647.1C448.9 664.3 485.7 670.4 512 670.4C538.3 670.4 575.1 664.3 592.4 647.1C596.5 643.1 603 643.1 607.1 647.1C611.1 651.2 611.1 657.7 607 661.8ZM600 596C577.9 596 560 578 560 556C560 533.9 578 516 600 516C622.1 516 640 534 640 556C640 578.1 622 596 600 596Z" fill="white"/>
</g>
<defs>
<clipPath id="clip0_2_3306">
<rect width="1024" height="1024" fill="white"/>
</clipPath>
</defs>
</svg>
